storage/app/icons/phosphoricons/light/currency-circle-dollar-light.svg

<svg xmlns="http://www.w3.org/2000/svg" fill="currentColor" viewBox="0 0 256 256"><path d="M128 26a102 102 0 1 0 102 102A102.12 102.12 0 0 0 128 26m0 192a90 90 0 1 1 90-90 90.1 90.1 0 0 1-90 90m38-70a26 26 0 0 1-26 26h-6v10a6 6 0 0 1-12 0v-10h-18a6 6 0 0 1 0-12h36a14 14 0 0 0 0-28h-24a26 26 0 0 1 0-52h6V72a6 6 0 0 1 12 0v10h18a6 6 0 0 1 0 12h-36a14 14 0 0 0 0 28h24a26 26 0 0 1 26 26"/></svg>

<svg xmlns="http://www.w3.org/2000/svg" viewBox="0 0 256 256" fill="currentColor"><path d="M128,26A102,102,0,1,0,230,128,102.12,102.12,0,0,0,128,26Zm0,192a90,90,0,1,1,90-90A90.1,90.1,0,0,1,128,218Zm38-70a26,26,0,0,1-26,26h-6v10a6,6,0,0,1-12,0V174H104a6,6,0,0,1,0-12h36a14,14,0,0,0,0-28H116a26,26,0,0,1,0-52h6V72a6,6,0,0,1,12,0V82h18a6,6,0,0,1,0,12H116a14,14,0,0,0,0,28h24A26,26,0,0,1,166,148Z"/></svg>
